X:1
T:There is a Lamp Whose Steady Light
T:Charles Hutchinson Gabriel, 1902
T:There is a Lamp Whose Steady Light
T:Public Domain
T:Public Domain
C:Charles Hutchinson Gabriel, 1902
Z:Public Domain
%%score ( 1 2 ) ( 3 4 )
L:1/8
M:6/8
K:Bb
V:1 treble 
V:2 treble 
V:3 bass 
V:4 bass 
V:1
 [DF] | [DF]2 [DF] (FB)[Dc] | [EB]2 [EA] [EA]2 [EF] | [EF]2 [Ec] ([Ec][Fd])[Ec] | %4
w: 1.~There|is a lamp * whose|dy light Can guide|the travel- er * in|
w: 2.~There|is a chart * whose|ings show The on-|ward course where * tem-|
w: 3.~There|is a tree * whose|im- part Health to|the bur- dened, * con-|
 [Ec]2 [DB] [DB]2 [DF] | [DF]2 [Fd] (dc)[FB] | [GB]2 [GB] ([GB][FA])[EG] | %7
w: the night; ’Tis God’s|own Word; its * beam-|ray Can turn * a|
w: pests blow; ’Tis God’s|own Word; there, * there|found Di- rect- * ion|
w: trite heart; ’Tis God’s|own Word; it * cures|sin, And makes * the|
 [DF]2 [DF] ([DF][FB])[Gc] | [Fd]2 [Ec] [DB]3 ||"^Refrain" (FFF [Fd])[=E^c][Fd] | %10
w: mid- night in- * to|day. Give me|this * * * lamp to|
w: for the home- * ward|bound. * *||
w: guilt- y con- * science|clean. * *||
 (D2 D [DF]2) [DF] | (FFF dc)[FB] | (F2 F [Fc]2) F | (F2 F ed)[Fc] | (F2 F [Fd]2) [Fd] | %15
w: * * * my|* * * * * This|for * * my|food; * * * Give|chart * * for|
w: |||||
w: |||||
 (F2 F cB)[_EG] | (FCD [EF]2) [EF] | [DF]2 [Fd] (dc)[FB] | [GB]2 [GB] ([GB][FA])[EG] | %19
w: rough * * * *|heal- * * * ing|this heal- ing * tree.||
w: ||||
w: ||||
 [DF]2 [DF] ([DF][FB])[Gc] | [Fd]2 [Ec] [DB]2 |] %21
w: ||
w: ||
w: ||
V:2
 x | x3 D2 x | x6 | x6 | x6 | x3 F2 x | x6 | x6 | x6 || d3- x3 | F3- x3 | d3- F2 x | c3- F x2 | %13
w: |stea-||||ing||||light|road,|store- house|dai- ly|
w: |trac-||||is||||||||
w: |leaves||||of||||||||
 e3- F2 x | d3- x3 | c3- =E2 x | F3- x3 | x3 F2 x | x6 | x6 | x5 |] %21
w: me this|life’s|sea, These|leaves,|||||
w: ||||||||
w: ||||||||
V:3
 [B,,B,] | [B,,B,]2 [B,,B,] [B,,B,]2 [B,,B,] | [F,C]2 [F,C] [F,C]2 [F,A,] | %3
w: ~|~ ~ ~ ~|~ ~ ~ ~|
 [F,A,]2 [F,A,] [F,A,]2 [F,A,] | [B,,B,]2 [B,,B,] [B,,B,]2 [B,,B,] | %5
w: ~ ~ ~ ~|~ ~ ~ ~|
 [B,,B,]2 [B,,B,] ([B,,B,][C,A,])[D,B,] | [E,B,]2 [E,B,] [E,B,]2 [E,C] | %7
w: ~ ~ ~ * ~|~ ~ ~ ~|
 [B,,B,]2 [B,,B,] (B,,D,)[E,B,] | [F,B,]2 [F,A,] [B,,B,]3 || %9
w: ~ ~ ~ * ~|~ ~ Give|
 [B,,B,][B,,B,][B,,B,] [B,,B,]2 [B,,B,] | [B,,B,]2 [B,,B,] [B,,B,]2 [B,,B,] | %11
w: me this lamp to light|my road; Oh, give|
 [B,,B,][B,,B,][B,,B,] ([B,,B,][C,A,])[D,B,] | [F,A,]2 [F,A,] [F,A,]2 [F,A,] | %13
w: me this lamp to * light|my road; This store-|
 [F,C]2 [F,C] (CB,)[F,A,] | [B,,B,]2 [B,,B,] [B,,B,]2 [B,,B,] | [C,A,]2 [C,A,] [C,G,]2 [C,B,] | %16
w: house for my * dai-|food, This store- house|for my dai- ly|
 [F,A,]2 [F,B,] [F,C]2 [F,A,] | [B,,B,]2 [B,,B,] ([B,,B,][C,A,])[D,B,] | %18
w: food; * * *||
 [E,B,]2 [E,B,] [E,B,]2 [E,B,] | [B,,B,]2 [B,,B,] (B,,D,)[E,B,] | [F,B,]2 [F,A,] [B,,B,]2 |] %21
w: |||
V:4
 x | x6 | x6 | x6 | x6 | x6 | x6 | x3 B,2 x | x6 || x6 | x6 | x6 | x6 | x3 F,2 x | x6 | x6 | x6 | %17
w: |||||||~||||||ly||||
 x6 | x6 | x3 B,2 x | x5 |] %21
w: ||||

